X:1     %Music
T:Banana Boat Song
B:Singing Together, Summer 1977, BBC Publications
F:http://www.folkinfo.org/songs
M:4/4     %Meter
L:1/8     %
K:A
A4 G4 |(FE3) C4 |A2 AA-AA-AE |GG GA-A4::
w:Day oh! Day_ oh! Day is break-__ing I wan' to go home._ 
Ac2 ee cc ec |dd dB G2 
w:Come Mis-ter tal-ly-man, come tal-ly my ba-na-nas.
A2 |A2 AA-AA-AE |GG GA-A4::
w: Day is break-__ing, I wan' to go home._ 
AA4 G4 |(FE3) C4 |A2 AA-AA-AE |GG GA-A4:|
w:Day oh! Day_ oh! Day is break-__ing, I wan' to go home._ 